!!!OTL: Row, Row, Row Your Boat
!!!COM: unknown
!!!ODT: unknown
!!!YOR: The Folksong Fake Book
!!!YOY: 2000
!!!AST: Children's song
!!!YEC: Brian Luke, 2001
**kern	**harm
*k[f#c#]	*k[f#c#]
*M2/4	*M2/4
*D:	*D:
*>A	*>A
=1	=1
4d	I
4d	.
=2	=2
8.d	.
16e	.
4f#	.
=3	=3
8.f#	.
16e	.
8.f#	.
16g	.
=4	=4
2a	.
=5	=5
12dd	.
12dd	.
12dd	.
12a	.
12a	.
12a	.
=6	=6
12f#	.
12f#	.
12f#	.
12d	.
12d	.
12d	.
=7	=7
8.a	V7
16g	.
8.f#	.
16e	.
=8	=8
2d	I;
*-	*-
